Numix/16/status/indicator-keyboard-Ru-2.svg

<?xml version="1.0" encoding="UTF-8" standalone="no"?>
<svg
   xmlns:dc="http://purl.org/dc/elements/1.1/"
   xmlns:cc="http://creativecommons.org/ns#"
   xmlns:rdf="http://www.w3.org/1999/02/22-rdf-syntax-ns#"
   xmlns:svg="http://www.w3.org/2000/svg"
   xmlns="http://www.w3.org/2000/svg"
   xmlns:sodipodi="http://sodipodi.sourceforge.net/DTD/sodipodi-0.dtd"
   xmlns:inkscape="http://www.inkscape.org/namespaces/inkscape"
   viewBox="0 0 16 16"
   id="svg2"
   version="1.1"
   inkscape:version="0.91 r13725"
   sodipodi:docname="indicator-keyboard-Ru-2.svg">
  <metadata
     id="metadata14">
    <rdf:RDF>
      <cc:Work
         rdf:about="">
        <dc:format>image/svg+xml</dc:format>
        <dc:type
           rdf:resource="http://purl.org/dc/dcmitype/StillImage" />
      </cc:Work>
    </rdf:RDF>
  </metadata>
  <defs
     id="defs12" />
  <sodipodi:namedview
     pagecolor="#ffffff"
     bordercolor="#666666"
     borderopacity="1"
     objecttolerance="10"
     gridtolerance="10"
     guidetolerance="10"
     inkscape:pageopacity="0"
     inkscape:pageshadow="2"
     inkscape:window-width="459"
     inkscape:window-height="369"
     id="namedview10"
     showgrid="false"
     inkscape:zoom="14.75"
     inkscape:cx="8"
     inkscape:cy="8"
     inkscape:window-x="65"
     inkscape:window-y="24"
     inkscape:window-maximized="0"
     inkscape:current-layer="svg2" />
  <path
     style="fill:#ececec;fill-opacity:1"
     d="M 1.5996094 0 C 0.71320937 2.9605947e-16 0 0.71320937 0 1.5996094 L 0 14.400391 C 2.9605947e-16 15.286791 0.71320937 16 1.5996094 16 L 14.400391 16 C 15.286791 16 16 15.286791 16 14.400391 L 16 1.5996094 C 16 0.71320937 15.286791 0 14.400391 0 L 1.5996094 0 z M 3.2324219 4.8046875 C 4.0904219 4.8046875 4.7359688 4.9670156 5.1679688 5.2910156 C 5.6059687 5.6150156 5.8242188 6.0944688 5.8242188 6.7304688 C 5.8242188 7.1984687 5.7010781 7.5678906 5.4550781 7.8378906 C 5.2090781 8.1078906 4.8844219 8.3038281 4.4824219 8.4238281 C 4.5784219 8.5438281 4.7015625 8.7042031 4.8515625 8.9082031 C 5.0075625 9.1122031 5.166125 9.3379844 5.328125 9.5839844 C 5.490125 9.8239844 5.6506406 10.075844 5.8066406 10.339844 C 5.9626406 10.603844 6.0931719 10.855703 6.2011719 11.095703 L 5.5449219 11.095703 C 5.4189219 10.855703 5.2808594 10.616953 5.1308594 10.376953 C 4.9868594 10.136953 4.8376406 9.9055939 4.6816406 9.6835938 C 4.5316406 9.4555937 4.3842344 9.2447344 4.2402344 9.0527344 L 3.8613281 8.5488281 C 3.6693281 8.5668281 3.4771563 8.5761719 3.2851562 8.5761719 L 2.2773438 8.5761719 L 2.2773438 11.095703 L 1.6660156 11.095703 L 1.6660156 4.9765625 C 1.8820156 4.9165625 2.133875 4.8736094 2.421875 4.8496094 C 2.715875 4.8196094 2.9864219 4.8046875 3.2324219 4.8046875 z M 3.3046875 5.3359375 C 3.0766875 5.3359375 2.8751719 5.3452813 2.7011719 5.3632812 C 2.5331719 5.3752812 2.3913437 5.3864375 2.2773438 5.3984375 L 2.2773438 8.0546875 L 3.125 8.0546875 C 3.407 8.0546875 3.6737813 8.0415781 3.9257812 8.0175781 C 4.1777812 7.9875781 4.3960313 7.9278906 4.5820312 7.8378906 C 4.7680312 7.7418906 4.9154375 7.6075938 5.0234375 7.4335938 C 5.1314375 7.2595938 5.1855469 7.0226562 5.1855469 6.7226562 C 5.1855469 6.4466563 5.1314375 6.2171094 5.0234375 6.0371094 C 4.9154375 5.8571094 4.7736094 5.7172344 4.5996094 5.6152344 C 4.4256094 5.5072344 4.2240937 5.4344375 3.9960938 5.3984375 C 3.7740937 5.3564375 3.5446875 5.3359375 3.3046875 5.3359375 z M 7.1308594 6.4433594 L 7.7148438 6.4433594 L 7.7148438 8.8632812 C 7.7148438 9.1932813 7.7391094 9.4731719 7.7871094 9.7011719 C 7.8351094 9.9291721 7.9134844 10.115766 8.0214844 10.259766 C 8.1294844 10.397766 8.2675469 10.498453 8.4355469 10.564453 C 8.6095469 10.624453 8.8204063 10.654297 9.0664062 10.654297 C 9.3424062 10.654297 9.5811563 10.639375 9.7851562 10.609375 C 9.9891565 10.579375 10.117875 10.553297 10.171875 10.529297 L 10.171875 6.4433594 L 10.757812 6.4433594 L 10.757812 10.933594 C 10.583812 10.981594 10.350641 11.035703 10.056641 11.095703 C 9.7626404 11.155703 9.4025625 11.185547 8.9765625 11.185547 C 8.6285625 11.185547 8.3375156 11.135203 8.1035156 11.033203 C 7.8695156 10.931203 7.6791563 10.787563 7.5351562 10.601562 C 7.3911562 10.415563 7.2867031 10.189781 7.2207031 9.9257812 C 7.1607031 9.6617812 7.1308594 9.3707344 7.1308594 9.0527344 L 7.1308594 6.4433594 z M 13.005859 8.7539062 C 13.399759 8.7539062 13.695631 8.851875 13.894531 9.046875 C 14.093431 9.237975 14.193359 9.5044563 14.193359 9.8476562 C 14.193359 9.9997563 14.165928 10.14475 14.111328 10.28125 C 14.056728 10.41385 13.982272 10.543169 13.888672 10.667969 C 13.798972 10.792769 13.697078 10.912297 13.580078 11.029297 C 13.463078 11.146297 13.343556 11.263859 13.222656 11.380859 C 13.121256 11.478359 13.021328 11.578288 12.923828 11.679688 C 12.830228 11.777187 12.744016 11.877116 12.666016 11.978516 C 12.591916 12.076016 12.533128 12.172031 12.486328 12.269531 C 12.443428 12.363131 12.421875 12.457181 12.421875 12.550781 L 12.421875 12.5625 L 14.333984 12.5625 L 14.333984 12.896484 L 12 12.896484 C 12 12.888684 11.998007 12.874969 11.994141 12.855469 L 11.994141 12.755859 C 11.994141 12.572559 12.02745 12.402094 12.09375 12.246094 C 12.16005 12.086194 12.244303 11.937275 12.345703 11.796875 C 12.451003 11.656475 12.564653 11.525197 12.689453 11.404297 C 12.818153 11.283397 12.941594 11.165834 13.058594 11.052734 C 13.156094 10.959134 13.248184 10.869003 13.333984 10.783203 C 13.423684 10.693503 13.502059 10.603366 13.568359 10.509766 C 13.634659 10.416166 13.687563 10.316237 13.726562 10.210938 C 13.765562 10.105638 13.783203 9.9900344 13.783203 9.8652344 C 13.783203 9.5922344 13.7107 9.39825 13.5625 9.28125 C 13.4182 9.16035 13.234019 9.0996094 13.011719 9.0996094 C 12.886919 9.0996094 12.775234 9.1152844 12.677734 9.1464844 C 12.580234 9.1776844 12.495975 9.2149125 12.421875 9.2578125 C 12.351675 9.2968125 12.290934 9.3379594 12.240234 9.3808594 C 12.189534 9.4237594 12.152306 9.4570688 12.128906 9.4804688 L 11.929688 9.2167969 C 11.953088 9.1894969 11.994234 9.1503094 12.052734 9.0996094 C 12.115134 9.0450094 12.19155 8.9921062 12.28125 8.9414062 C 12.37485 8.8907063 12.480663 8.8476 12.601562 8.8125 C 12.722462 8.7735 12.857659 8.7539063 13.005859 8.7539062 z "
     id="path4" />
</svg>

<svg xmlns="http://www.w3.org/2000/svg" viewBox="0 0 16 16">
 <path d="m 1.6 0 c -0.886 0 -1.6 0.713 -1.6 1.6 l 0 12.801 c 0 0.886 0.713 1.6 1.6 1.6 l 12.801 0 c 0.886 0 1.6 -0.713 1.6 -1.6 l 0 -12.801 c 0 -0.886 -0.713 -1.6 -1.6 -1.6 l -12.801 0 z m 1.633 4.805 c 0.858 0 1.504 0.162 1.936 0.486 c 0.438 0.324 0.656 0.803 0.656 1.439 c 0 0.468 -0.123 0.837 -0.369 1.107 c -0.246 0.27 -0.571 0.466 -0.973 0.586 c 0.096 0.12 0.219 0.28 0.369 0.484 c 0.156 0.204 0.315 0.43 0.477 0.676 c 0.162 0.24 0.323 0.492 0.479 0.756 c 0.156 0.264 0.287 0.516 0.395 0.756 l -0.656 0 c -0.126 -0.24 -0.264 -0.479 -0.414 -0.719 c -0.144 -0.24 -0.293 -0.471 -0.449 -0.693 c -0.15 -0.228 -0.297 -0.439 -0.441 -0.631 l -0.379 -0.504 c -0.192 0.018 -0.384 0.027 -0.576 0.027 l -1.01 0 l 0 2.52 l -0.611 0 l 0 -6.119 c 0.216 -0.06 0.468 -0.103 0.756 -0.127 c 0.294 -0.03 0.565 -0.045 0.811 -0.045 z m 0.072 0.531 c -0.228 0 -0.43 0.009 -0.604 0.027 c -0.168 0.012 -0.31 0.023 -0.424 0.035 l 0 2.656 l 0.848 0 c 0.282 0 0.549 -0.013 0.801 -0.037 c 0.252 -0.03 0.47 -0.09 0.656 -0.18 c 0.186 -0.096 0.333 -0.23 0.441 -0.404 c 0.108 -0.174 0.162 -0.411 0.162 -0.711 c 0 -0.276 -0.054 -0.506 -0.162 -0.686 c -0.108 -0.18 -0.25 -0.32 -0.424 -0.422 c -0.174 -0.108 -0.376 -0.181 -0.604 -0.217 c -0.222 -0.042 -0.451 -0.063 -0.691 -0.063 z m 3.826 1.107 l 0.584 0 l 0 2.42 c 0 0.33 0.024 0.61 0.072 0.838 c 0.048 0.228 0.126 0.415 0.234 0.559 c 0.108 0.138 0.246 0.239 0.414 0.305 c 0.174 0.06 0.385 0.09 0.631 0.09 c 0.276 0 0.515 -0.015 0.719 -0.045 c 0.204 -0.03 0.333 -0.056 0.387 -0.08 l 0 -4.086 l 0.586 0 l 0 4.49 c -0.174 0.048 -0.407 0.102 -0.701 0.162 c -0.294 0.06 -0.654 0.09 -1.08 0.09 c -0.348 0 -0.639 -0.05 -0.873 -0.152 c -0.234 -0.102 -0.424 -0.246 -0.568 -0.432 c -0.144 -0.186 -0.248 -0.412 -0.314 -0.676 c -0.06 -0.264 -0.09 -0.555 -0.09 -0.873 l 0 -2.609 z m 5.875 2.311 c 0.394 0 0.69 0.098 0.889 0.293 c 0.199 0.191 0.299 0.458 0.299 0.801 c 0 0.152 -0.027 0.297 -0.082 0.434 c -0.055 0.133 -0.129 0.262 -0.223 0.387 c -0.09 0.125 -0.192 0.244 -0.309 0.361 c -0.117 0.117 -0.237 0.235 -0.357 0.352 c -0.101 0.098 -0.201 0.197 -0.299 0.299 c -0.094 0.097 -0.18 0.197 -0.258 0.299 c -0.074 0.097 -0.133 0.194 -0.18 0.291 c -0.043 0.094 -0.064 0.188 -0.064 0.281 l 0 0.012 l 1.912 0 l 0 0.334 l -2.334 0 c 0 -0.008 -0.002 -0.022 -0.006 -0.041 l 0 -0.1 c 0 -0.183 0.033 -0.354 0.1 -0.51 c 0.066 -0.16 0.151 -0.309 0.252 -0.449 c 0.105 -0.14 0.219 -0.272 0.344 -0.393 c 0.129 -0.121 0.252 -0.238 0.369 -0.352 c 0.098 -0.094 0.19 -0.184 0.275 -0.27 c 0.09 -0.09 0.168 -0.18 0.234 -0.273 c 0.066 -0.094 0.119 -0.194 0.158 -0.299 c 0.039 -0.105 0.057 -0.221 0.057 -0.346 c 0 -0.273 -0.073 -0.467 -0.221 -0.584 c -0.144 -0.121 -0.328 -0.182 -0.551 -0.182 c -0.125 0 -0.236 0.016 -0.334 0.047 c -0.097 0.031 -0.182 0.068 -0.256 0.111 c -0.07 0.039 -0.131 0.08 -0.182 0.123 c -0.051 0.043 -0.088 0.076 -0.111 0.1 l -0.199 -0.264 c 0.023 -0.027 0.065 -0.066 0.123 -0.117 c 0.062 -0.055 0.139 -0.108 0.229 -0.158 c 0.094 -0.051 0.199 -0.094 0.32 -0.129 c 0.121 -0.039 0.256 -0.059 0.404 -0.059 z" style="fill:#ececec;fill-opacity:1"/>
</svg>
